packages/foundations/assets/icons/functional/images/maps/map_16.svg

<svg width="16" height="16" viewBox="0 0 16 16" fill="none" xmlns="http://www.w3.org/2000/svg">
<g clip-path="url(#clip0_186_76)">
<path fill-rule="evenodd" clip-rule="evenodd" d="M6.0952 1.6L10.3873 3.02222L13.2825 1.57464C13.4049 1.51345 13.5365 1.49841 13.7397 1.49841C14.0952 1.49841 14.5016 1.77782 14.5016 2.18417V12.0635C14.5016 12.3429 14.4 12.5968 14.146 12.7238L10.8191 14.4254C10.7175 14.4762 10.5905 14.5016 10.4635 14.5016C10.3619 14.5016 10.2096 14.4508 10.0571 14.4254L5.6127 12.927L2.66667 14.4254C2.56508 14.4762 2.43805 14.5016 2.33647 14.5016C1.87941 14.5016 1.49841 14.2222 1.49841 13.6889V3.91115C1.49841 3.6571 1.6 3.35234 1.85397 3.2254L5.10476 1.6C5.2673 1.51873 5.39733 1.50248 5.50784 1.49923L5.58726 1.49841C5.71429 1.49841 5.81303 1.50646 6.0952 1.6ZM6.3746 3.40322V11.4793L9.6254 12.5714V4.49524L6.3746 3.40322ZM12.8762 3.60639L11.2508 4.41909V12.3683L12.8762 11.5556V3.60639ZM4.74921 3.60639L3.12381 4.41909V12.3683L4.74921 11.5556V3.60639Z" fill="#1A1C1F"/>
</g>
<defs>
<clipPath id="clip0_186_76">
<rect width="16" height="16" fill="white"/>
</clipPath>
</defs>
</svg>

<svg xmlns="http://www.w3.org/2000/svg" width="16" height="16" fill="none"><g clip-path="url(#a)"><path fill="#1A1C1F" fill-rule="evenodd" d="m6.095 1.6 4.292 1.422 2.896-1.447c.122-.062.254-.077.457-.077.355 0 .762.28.762.686v9.88c0 .279-.102.533-.356.66l-3.327 1.701a.8.8 0 0 1-.356.077c-.101 0-.253-.051-.406-.077l-4.444-1.498-2.946 1.498a.8.8 0 0 1-.33.077c-.458 0-.839-.28-.839-.813V3.91c0-.254.102-.559.356-.686L5.104 1.6a.9.9 0 0 1 .404-.1l.08-.002c.126 0 .225.008.507.102m.28 1.803v8.076l3.25 1.092V4.495zm6.501.203-1.625.813v7.95l1.625-.813zm-8.127 0-1.625.813v7.95l1.625-.813z" clip-rule="evenodd"/></g><defs><clipPath id="a"><path fill="#fff" d="M0 0h16v16H0z"/></clipPath></defs></svg>
